X:1
T:Title
%%score { 1 | 2 }
L:1/8
Q:1/4=116
M:4/4
K:C
V:1 treble nm="Grand Piano"
V:2 treble 
V:1
 c3 c B2 c2 | d4 d4 | [Ge]3 [Ge] [^Fd]2 [Fc]2 | [Gd]4 z4 | [Ec]3 [Ec] [Ec]2 [CGB]2 | %5
w: Alice~Nevin * * *|||||
 [CFA]4 [FAd]4 | c2 c2 B2 B2 |[M:8/4] [Ec]4 z4 z8 |[M:4/4] [Fc]8 | [Ec]8 |] %10
w: |||||
V:2
 [CEG]3 [CEG] [DFG]2 [CEG]2 | [G,B,G]4 [G,B,G]4 | [C,C]3 [C,C] [D,A,]2 [D,A,]2 | [G,B,]4 z4 | %4
 [C,C]3 [C,C] [C,C]2 E,2 | F,4 D,4 | [G,EG]2 [G,EG]2 [G,DF]2 [G,DF]2 | %7
[M:8/4][K:bass] [C,C]4 z4 z8 |[M:4/4] [F,A,]8 | [C,G,]8 |] %10

